X:6
T:Jon Eric's
R:reel
C:Paul S. Cranford
O:Cape Breton Island
S:http://www.cranfordpub.com
D:currently unrecorded
B:currently unpublished in book form
Z:psc, (re-formatted,updated 9/17/04)
N:
H:                                                        copyrights Cranford Publications, SOCAN
L:1/8
Q:333
M:C|
K:A
F|ECA,C EAcA|BGEG BcdB|ecAc dBcA|BGAF ECDF|
ECA,C EAcA|BGEG BcdB|ecAc dBca|gedB cAA:|
|:B|ceec dBaf|geaf gedB|Aece dBaf|gedB cAAB|
c/c/c ec dBfa|geaf gedB|AEDF EAca|gedB cAA:|
